src/components/Icon/icons/sparkles.svg

<svg width="100%" height="100%" viewBox="0 0 24 24" fill="none" xmlns="http://www.w3.org/2000/svg">
<path fill-rule="evenodd" clip-rule="evenodd" d="M15 4.5C14.837 4.50003 14.6785 4.55315 14.5484 4.6513C14.4183 4.74945 14.3238 4.8873 14.279 5.044L13.466 7.89C13.291 8.50292 12.9626 9.0611 12.5118 9.51183C12.0611 9.96255 11.5029 10.291 10.89 10.466L8.04401 11.279C7.88741 11.3239 7.74968 11.4185 7.65163 11.5486C7.55358 11.6786 7.50055 11.8371 7.50055 12C7.50055 12.1629 7.55358 12.3214 7.65163 12.4514C7.74968 12.5815 7.88741 12.6761 8.04401 12.721L10.89 13.534C11.5029 13.709 12.0611 14.0374 12.5118 14.4882C12.9626 14.9389 13.291 15.4971 13.466 16.11L14.279 18.956C14.3239 19.1126 14.4185 19.2503 14.5486 19.3484C14.6786 19.4464 14.8371 19.4995 15 19.4995C15.1629 19.4995 15.3214 19.4464 15.4514 19.3484C15.5815 19.2503 15.6761 19.1126 15.721 18.956L16.534 16.11C16.7091 15.4971 17.0375 14.9389 17.4882 14.4882C17.9389 14.0374 18.4971 13.709 19.11 13.534L21.956 12.721C22.1126 12.6761 22.2503 12.5815 22.3484 12.4514C22.4464 12.3214 22.4995 12.1629 22.4995 12C22.4995 11.8371 22.4464 11.6786 22.3484 11.5486C22.2503 11.4185 22.1126 11.3239 21.956 11.279L19.11 10.466C18.4971 10.291 17.9389 9.96255 17.4882 9.51183C17.0375 9.0611 16.7091 8.50292 16.534 7.89L15.721 5.044C15.6762 4.8873 15.5817 4.74945 15.4516 4.6513C15.3215 4.55315 15.163 4.50003 15 4.5ZM6.00001 1.5C5.83269 1.49991 5.67015 1.55576 5.53823 1.65869C5.40632 1.76161 5.31261 1.90569 5.27201 2.068L5.01401 3.104C4.89812 3.56533 4.65929 3.98659 4.32294 4.32294C3.9866 4.65928 3.56534 4.89811 3.10401 5.014L2.06801 5.272C1.90538 5.31228 1.76092 5.40586 1.65767 5.5378C1.55443 5.66974 1.49833 5.83246 1.49833 6C1.49833 6.16754 1.55443 6.33026 1.65767 6.4622C1.76092 6.59414 1.90538 6.68772 2.06801 6.728L3.10401 6.986C3.56534 7.10189 3.9866 7.34072 4.32294 7.67706C4.65929 8.01341 4.89812 8.43467 5.01401 8.896L5.27201 9.932C5.31229 10.0946 5.40586 10.2391 5.53781 10.3423C5.66975 10.4456 5.83247 10.5017 6.00001 10.5017C6.16755 10.5017 6.33026 10.4456 6.46221 10.3423C6.59415 10.2391 6.68773 10.0946 6.72801 9.932L6.98601 8.896C7.10189 8.43467 7.34072 8.01341 7.67707 7.67706C8.01341 7.34072 8.43468 7.10189 8.89601 6.986L9.93201 6.728C10.0946 6.68772 10.2391 6.59414 10.3423 6.4622C10.4456 6.33026 10.5017 6.16754 10.5017 6C10.5017 5.83246 10.4456 5.66974 10.3423 5.5378C10.2391 5.40586 10.0946 5.31228 9.93201 5.272L8.89601 5.014C8.43468 4.89811 8.01341 4.65928 7.67707 4.32294C7.34072 3.98659 7.10189 3.56533 6.98601 3.104L6.72801 2.068C6.68741 1.90569 6.59369 1.76161 6.46178 1.65869C6.32986 1.55576 6.16732 1.49991 6.00001 1.5ZM7.50001 15C7.34249 14.9999 7.18894 15.0494 7.06114 15.1415C6.93335 15.2336 6.83778 15.3636 6.78801 15.513L6.394 16.696C6.244 17.143 5.894 17.495 5.446 17.644L4.26301 18.039C4.11404 18.089 3.98455 18.1845 3.89281 18.3121C3.80106 18.4397 3.75171 18.5929 3.75171 18.75C3.75171 18.9071 3.80106 19.0603 3.89281 19.1879C3.98455 19.3155 4.11404 19.411 4.26301 19.461L5.446 19.856C5.66672 19.9297 5.86728 20.0537 6.03181 20.2182C6.19635 20.3827 6.32034 20.5833 6.394 20.804L6.78901 21.987C6.83902 22.136 6.93455 22.2655 7.06213 22.3572C7.1897 22.4489 7.34287 22.4983 7.50001 22.4983C7.65714 22.4983 7.81031 22.4489 7.93788 22.3572C8.06546 22.2655 8.161 22.136 8.21101 21.987L8.60601 20.804C8.67967 20.5833 8.80367 20.3827 8.9682 20.2182C9.13273 20.0537 9.33329 19.9297 9.55401 19.856L10.737 19.461C10.886 19.411 11.0155 19.3155 11.1072 19.1879C11.1989 19.0603 11.2483 18.9071 11.2483 18.75C11.2483 18.5929 11.1989 18.4397 11.1072 18.3121C11.0155 18.1845 10.886 18.089 10.737 18.039L9.55401 17.644C9.33329 17.5703 9.13273 17.4463 8.9682 17.2818C8.80367 17.1173 8.67967 16.9167 8.60601 16.696L8.21101 15.513C8.16129 15.3637 8.06587 15.2339 7.93827 15.1418C7.81067 15.0497 7.65735 15.0001 7.50001 15Z" fill="currentColor"/>
</svg>

<svg xmlns="http://www.w3.org/2000/svg" fill="none" viewBox="0 0 24 24"><path fill="currentColor" fill-rule="evenodd" d="M15 4.5a.75.75 0 0 0-.721.544l-.813 2.846a3.75 3.75 0 0 1-2.576 2.576l-2.846.813a.75.75 0 0 0 0 1.442l2.846.813a3.75 3.75 0 0 1 2.576 2.576l.813 2.846a.75.75 0 0 0 1.442 0l.813-2.846a3.75 3.75 0 0 1 2.576-2.576l2.846-.813a.75.75 0 0 0 0-1.442l-2.846-.813a3.75 3.75 0 0 1-2.576-2.576l-.813-2.846A.75.75 0 0 0 15 4.5m-9-3a.75.75 0 0 0-.728.568l-.258 1.036a2.63 2.63 0 0 1-1.91 1.91l-1.036.258a.75.75 0 0 0 0 1.456l1.036.258a2.63 2.63 0 0 1 1.91 1.91l.258 1.036a.75.75 0 0 0 1.456 0l.258-1.036a2.63 2.63 0 0 1 1.91-1.91l1.036-.258a.75.75 0 0 0 0-1.456l-1.036-.258a2.63 2.63 0 0 1-1.91-1.91l-.258-1.036A.75.75 0 0 0 6 1.5M7.5 15a.75.75 0 0 0-.712.513l-.394 1.183a1.5 1.5 0 0 1-.948.948l-1.183.395a.75.75 0 0 0 0 1.422l1.183.395a1.5 1.5 0 0 1 .948.948l.395 1.183a.75.75 0 0 0 1.422 0l.395-1.183a1.5 1.5 0 0 1 .948-.948l1.183-.395a.75.75 0 0 0 0-1.422l-1.183-.395a1.5 1.5 0 0 1-.948-.948l-.395-1.183A.75.75 0 0 0 7.5 15" clip-rule="evenodd"/></svg>
